X: 328
T:Wellington's Advance
% Nottingham Music Database
S:Trad, arr Phil Rowe
M:6/8
K:Am
E|"Am"EAA A^GA|cBA c2d|"C"efe e^fg|"G"dBG G^FG|
"Am"EAA A^GA|"Am"cBA c2d|"E7"efe dcB|"Am"cAA A2::(3e/2^f/2g/2|
"Am"aee aee|aed cBA|"G"BAB g^fe|dBG G^FG|
"Am"eaa a^ga|"C"egg g^fg|"E7"efe dcB|"Am"cAA A2:|


